src/assets/logos/aragon.svg

<svg height="47" viewBox="0 0 326 47" width="326" xmlns="http://www.w3.org/2000/svg"><path d="m167 23.1176471v-.1176471c0-12.4705882 9.583099-23 23.129577-23 7.808451 0 12.6 2.17647059 17.214085 6.05882353l-4.969014 5.88235297c-3.430986-2.9411765-6.861972-4.76470591-12.540845-4.76470591-8.28169 0-14.552113 7.17647061-14.552113 15.70588231v.1176471c0 9.1764706 6.092958 15.8823529 15.261972 15.8823529 4.2 0 8.04507-1.3529411 10.825352-3.3529411v-8.3529412-1.7647059l7.630986-5.0588235v18.7058823c-4.43662 3.7647059-10.766197 6.9411765-18.692958 6.9411765-14.078873 0-23.307042-9.9411765-23.307042-22.8823529zm-147.1886076-21.1176471h7.3772152l19.8113924 45h-8.3886076l-4.5810127-10.7480315-2.8556962-6.9685039-7.7936708-17.8937008-7.7341773 17.8937008-2.9151898 6.9685039-4.64050636 10.7480315h-8.09113924zm111.0594936-1h7.317722l19.811392 45h-8.329114l-4.581013-10.8070866-2.915189-6.968504-7.793671-17.8346456-7.734178 17.8346456-2.855696 6.968504-4.640506 10.8070866h-8.150633zm116.688457 0c13.767677 0 23.440657 10.3529412 23.440657 22.8823529v.1176471c0 12.5294118-9.732323 23-23.559343 23-13.827021 0-23.440657-10.3529412-23.440657-22.8823529v-.1176471c0-12.5294118 9.732323-23 23.559343-23zm15.132576 23.1764706v-.1176471c0-8.6470588-6.409091-15.82352938-15.310606-15.82352938s-15.132576 7.05882348-15.132576 15.70588238v.117647c0 8.6470589 6.409091 15.8235294 15.310606 15.8235294 8.901516 0 15.132576-7.0588235 15.132576-15.7058823zm55.567172-22.1764706h7.740909v44h-6.559091l-24.7-31.32893v31.32893h-7.740909v-44h7.268182l23.990909 30.3989432zm-230.3150786 27.318362 12.0559876 16.6235138h-9.2783826l-10.9922239-15.344782h-5.2006221-.5909798l3.0730949-6.8586526h4.3732504c5.6143079 0 9.2192846-2.8480845 9.2192846-7.323646v-.1162483c0-3.8943197-2.4230171-6.33553501-6.5598756-7.0330251-.8273717-.11624835-1.7138414-.2324967-2.718507-.2324967h-11.4650078v20.2853369 1.336856 10.4623514 4.8824306h-2.1866252-5.6734059v-44h19.9751166c5.673406 0 10.0466563 1.62747688 12.9424573 4.41743725 2.3639191 2.38309115 3.7231726 5.63804495 3.7231726 9.47424045v.1162483c0 7.2073976-4.4323484 11.5667107-10.6967341 13.310436z" fill-rule="evenodd"/></svg>

<svg xmlns="http://www.w3.org/2000/svg" width="326" height="47" viewBox="0 0 326 47">
  <path fill-rule="evenodd" d="M167,23.1176471 L167,23 C167,10.5294118 176.583099,0 190.129577,0 C197.938028,0 202.729577,2.17647059 207.343662,6.05882353 L202.374648,11.9411765 C198.943662,9 195.512676,7.17647059 189.833803,7.17647059 C181.552113,7.17647059 175.28169,14.3529412 175.28169,22.8823529 L175.28169,23 C175.28169,32.1764706 181.374648,38.8823529 190.543662,38.8823529 C194.743662,38.8823529 198.588732,37.5294118 201.369014,35.5294118 L201.369014,27.1764706 L201.369014,25.4117647 L209,20.3529412 L209,39.0588235 C204.56338,42.8235294 198.233803,46 190.307042,46 C176.228169,46 167,36.0588235 167,23.1176471 Z M19.8113924,2 L27.1886076,2 L47,47 L38.6113924,47 L34.0303797,36.2519685 L31.1746835,29.2834646 L23.3810127,11.3897638 L15.6468354,29.2834646 L12.7316456,36.2519685 L8.09113924,47 L0,47 L19.8113924,2 Z M130.870886,1 L138.188608,1 L158,46 L149.670886,46 L145.089873,35.1929134 L142.174684,28.2244094 L134.381013,10.3897638 L126.646835,28.2244094 L123.791139,35.1929134 L119.150633,46 L111,46 L130.870886,1 Z M247.559343,1 C261.32702,1 271,11.3529412 271,23.8823529 L271,24 C271,36.5294118 261.267677,47 247.440657,47 C233.613636,47 224,36.6470588 224,24.1176471 L224,24 C224,11.4705882 233.732323,1 247.559343,1 Z M262.691919,24.1764706 L262.691919,24.0588235 C262.691919,15.4117647 256.282828,8.23529412 247.381313,8.23529412 C238.479798,8.23529412 232.248737,15.2941176 232.248737,23.9411765 L232.248737,24.0588235 C232.248737,32.7058824 238.657828,39.8823529 247.559343,39.8823529 C256.460859,39.8823529 262.691919,32.8235294 262.691919,24.1764706 Z M318.259091,2 L326,2 L326,46 L319.440909,46 L294.740909,14.67107 L294.740909,46 L287,46 L287,2 L294.268182,2 L318.259091,32.3989432 L318.259091,2 Z M87.9440124,29.318362 L100,45.9418758 L90.7216174,45.9418758 L79.7293935,30.5970938 L74.5287714,30.5970938 L73.9377916,30.5970938 L77.0108865,23.7384412 L81.3841369,23.7384412 C86.9984448,23.7384412 90.6034215,20.8903567 90.6034215,16.4147952 L90.6034215,16.2985469 C90.6034215,12.4042272 88.1804044,9.96301189 84.0435459,9.2655218 C83.2161742,9.14927345 82.3297045,9.0330251 81.3250389,9.0330251 L69.8600311,9.0330251 L69.8600311,29.318362 L69.8600311,30.655218 L69.8600311,41.1175694 L69.8600311,46 L67.6734059,46 L62,46 L62,2 L81.9751166,2 C87.6485226,2 92.0217729,3.62747688 94.9175739,6.41743725 C97.281493,8.8005284 98.6407465,12.0554822 98.6407465,15.8916777 L98.6407465,16.007926 C98.6407465,23.2153236 94.2083981,27.5746367 87.9440124,29.318362 Z"/>
</svg>
